html/images/icon-brand-item-1.svg

<svg width="177" height="18" viewBox="0 0 177 18" fill="none" xmlns="http://www.w3.org/2000/svg">
<path d="M16.8306 5.33434V2.34589C16.8306 2.34589 9.22015 -2.08202 2.98882 2.34589C2.03966 3.19698 1.28234 4.24017 0.767094 5.40626C0.251847 6.57235 -0.00954276 7.83467 0.000266186 9.10949C0.000266186 13.5136 3.46065 15.873 3.46065 15.873C3.46065 15.873 9.0624 19.805 17.0842 15.873V8.32289H8.41553V11.1543H13.9382V13.9852C13.9382 13.9852 3.61817 17.622 3.77531 9.00449C3.77531 9.00449 3.30358 4.23331 8.41548 3.60409C8.41548 3.60409 11.7972 2.66037 16.8306 5.33434Z" fill="#000"/>
<path d="M30.2 0.388672H27.0542V17.6208H30.2V0.388672Z" fill="#000"/>
<path d="M38.2222 0.388672H41.8398L47.0303 12.8844L52.3783 0.388672H56.1534L48.446 17.2276H45.6149L38.2222 0.388672Z" fill="#000"/>
<path d="M63.7036 0.388672V17.6207H77.7025V14.4573H67.164V10.3678H74.5569V7.69387H67.164V3.60429H77.7025V0.388672H63.7036Z" fill="#000"/>
<path d="M86.8252 17.2276H90.1288V6.12119L100.353 17.2276H103.184V0.388672H100.038V11.9412L89.56 0.388672H86.8252V17.2276Z" fill="#000"/>
<path d="M127.249 5.80673C127.249 5.80673 126.148 3.60467 120.643 3.4474C120.643 3.4474 113.88 3.39452 114.194 9.00482C114.509 14.6151 120.716 14.3006 120.716 14.3006C120.716 14.3006 126.463 14.143 127.25 12.2558V15.8124C127.25 15.8124 125.979 17.2278 120.716 17.6208C120.716 17.6208 110.734 17.9181 110.734 9.73892C110.734 9.73892 110.105 0.161383 120.014 0.388751C120.014 0.388751 125.519 0.301456 127.249 1.87442V5.80673Z" fill="#000"/>
<path d="M136.215 0.388672H139.676V7.53714H148.641V0.388672H151.945V17.2276H148.799V10.5255H139.518V17.2276H136.215V0.388672Z" fill="#000"/>
<path d="M165.315 10.3683V17.2276H168.774V10.3683L176.639 0.388672H172.55L167.044 7.37989L161.854 0.388672H157.607L165.315 10.3683Z" fill="#000"/>
</svg>

<svg width="177" height="18" viewBox="0 0 177 18" fill="none" xmlns="http://www.w3.org/2000/svg"><path d="M16.83 5.334V2.346s-7.61-4.428-13.841 0A8.992 8.992 0 0 0 0 9.109c0 4.405 3.46 6.764 3.46 6.764s5.602 3.932 13.624 0v-7.55H8.416v2.831h5.522v2.831s-10.32 3.637-10.163-4.98c0 0-.471-4.772 4.64-5.4 0 0 3.382-.945 8.416 1.73ZM30.2.389h-3.146V17.62H30.2V.389Zm8.022 0h3.618l5.19 12.495L52.378.39h3.775l-7.707 16.839h-2.831L38.222.388Zm25.482 0V17.62h13.998v-3.164H67.165v-4.09h7.393V7.695h-7.393v-4.09h10.538V.39H63.705Zm23.121 16.839h3.304V6.12l10.224 11.107h2.831V.388h-3.146v11.553L89.56.39h-2.735v16.839Zm40.424-11.421s-1.101-2.202-6.606-2.36c0 0-6.763-.052-6.449 5.558.315 5.61 6.522 5.296 6.522 5.296s5.747-.158 6.534-2.045v3.556s-1.271 1.416-6.534 1.809c0 0-9.982.297-9.982-7.882 0 0-.629-9.578 9.28-9.35 0 0 5.505-.088 7.235 1.485v3.933Zm8.966-5.418h3.461v7.148h8.965V.39h3.304v16.839h-3.146v-6.703h-9.281v6.703h-3.303V.388Zm29.1 9.979v6.86h3.459v-6.86l7.865-9.98h-4.089l-5.506 6.992-5.19-6.991h-4.247l7.708 9.98Z" fill="#000"/></svg>
